X:112
T:Dance, A
O:No 112 Wm Clarke MS  Feltwell, Norfolk
I:abc2nwc
M:6/8
L:1/8
K:G
(d/2c/2)|B2B BcA|B2c def|g2f e2d|dcB ABc|
B2B BcA|B2c def|g2e b2g|fge d2:|
|:d/2c/2|BcA G2D|E2D G2B|BcA G2B|B A A A3|
BcA G2D|E2D G2D|B2d A2d|B G G G2:|

